X:1
T:Amazon, 76.76 D
T:Amazon, 76.76 D
T:Daniel Brink Towner, 1899
T:Public Domain Courtesy of the Cyber Hymnal™
C:Daniel Brink Towner, 1899
Z:Public Domain
Z:Courtesy of the Cyber Hymnal™
%%score 1 ( 2 3 )
L:1/8
Q:1/4=103
M:6/8
K:C
V:1 treble 
V:2 bass 
V:3 bass 
V:1
 [EG] | [EG]2 [^D^F] [=FA]2 [EG] | [CE] [EG]4 [Ec] | [DB]2 [DB] ([DB][Ec])[Fd] | %4
 [Ec]3- [Ec]2 [EG] | [EG]2 [^D^F] [=FA]2 [EG] | [CE] [EG]4 [Ec] | [DB]2 [DB] [CA]2 [CA] | %8
 [B,G]3- [B,G]2 [FG] | [Fd]2 [Fd] ([Fd][Ge])[Fd] | [Ec] [EG]4 [Ec] | [Fd]2 [Fd] ([Fd][Ec])[DB] | %12
 [Ec]3- [Ec]2 [EG] | [FA]2 [FA] ([Ac][GB])[FA] | [EG] [Ec]4 [Ec] | [DB]2 [DB] ([DB][Ec])[Fd] | %16
 [Ec]3- [Ec]2 |] %17
V:2
 [C,C] | [C,C]2 [C,C] [C,C]2 [C,C] | [C,G,] [C,C]4 [C,G,] | G,2 G, G,2 G, | %4
 [C,G,]3- [C,G,]2 [C,C] | [C,C]2 [C,C] [C,C]2 [C,C] | [C,G,] [C,C]4 [C,G,] | %7
 [D,G,]2 [D,G,] [D,^F,]2 [D,F,] | [G,,G,]3- [G,,G,]2 [G,B,] | [G,B,]2 [G,B,] [G,B,]2 [G,B,] | %10
 [C,C] [C,C]4 [C,G,] | G,2 G, G,2 G, | [C,G,]3- [C,G,]2 [C,C] | [F,C]2 [F,C] [F,C]2 [F,C] | %14
 [C,C] [C,G,]4 [C,G,] | G,2 G, G,2 G, | [C,G,]3- [C,G,]2 |] %17
V:3
 x | x6 | x6 | G,2 G, G,2 G, | x6 | x6 | x6 | x6 | x6 | x6 | x6 | G,2 G, G,2 G, | x6 | x6 | x6 | %15
 G,2 G, G,2 G, | x5 |] %17

